icons/4_Outdated/TradingView v2.svg

<svg xmlns="http://www.w3.org/2000/svg" width="1024" height="1024" fill="none">
   <g clip-path="url(#a)">
      <path fill="#728DBE" d="M512 1024c282.77 0 512-229.23 512-512S794.77 0 512 0 0 229.23 0 512s229.23 512 512 512Z"/>
      <path fill="#fff" d="M734 465.54a96.9 96.9 0 0 1 17.05 50.86 79.721 79.721 0 0 1-26.47 154.88H326.13a105.888 105.888 0 0 1-74.77-30.76l169-133.81a44.377 44.377 0 0 0 39.7 1l80.58 70.5a44.275 44.275 0 0 0 6.922 40.116 44.267 44.267 0 0 0 56.932 11.87 44.27 44.27 0 0 0 19.566-54.766L734 465.54Zm-25-25L599.09 550.37a44.452 44.452 0 0 0-35.09 1.17L483.46 481a44.273 44.273 0 0 0-41.109-57.647 44.28 44.28 0 0 0-35.825 16.813 44.27 44.27 0 0 0-8.066 38.744L230.64 611.75a106.248 106.248 0 0 1 44.617-140.08 106.257 106.257 0 0 1 51.953-12.92 141.692 141.692 0 0 1 221.228-98.869 141.696 141.696 0 0 1 55.472 77.139 97.514 97.514 0 0 1 105 3.45l.09.07Z"/>
   </g>
   <defs>
      <clipPath id="a">
         <path fill="#fff" d="M0 0h1024v1024H0z"/>
      </clipPath>
   </defs>
</svg>

<svg width="1024" height="1024" viewBox="0 0 1024 1024" fill="none" xmlns="http://www.w3.org/2000/svg">
<g clip-path="url(#clip0_3_698)">
<path d="M512 1024C794.77 1024 1024 794.77 1024 512C1024 229.23 794.77 0 512 0C229.23 0 0 229.23 0 512C0 794.77 229.23 1024 512 1024Z" fill="#728DBE"/>
<path d="M734 465.54C744.356 480.551 750.266 498.18 751.05 516.4C768.771 522.666 783.708 534.992 793.224 551.202C802.74 567.412 806.222 586.462 803.055 604.99C799.889 623.518 790.277 640.331 775.918 652.46C761.559 664.59 743.376 671.255 724.58 671.28H326.13C298.119 671.32 271.234 660.259 251.36 640.52L420.36 506.71C426.445 509.948 433.201 511.725 440.092 511.898C446.983 512.072 453.819 510.638 460.06 507.71L540.64 578.21C538.5 584.963 538.012 592.13 539.216 599.111C540.421 606.091 543.283 612.681 547.562 618.326C551.841 623.971 557.413 628.507 563.808 631.552C570.204 634.598 577.236 636.064 584.316 635.828C591.396 635.592 598.316 633.661 604.494 630.196C610.673 626.732 615.93 621.835 619.823 615.918C623.717 610 626.134 603.235 626.871 596.19C627.608 589.144 626.644 582.025 624.06 575.43L734 465.54ZM709 440.54L599.09 550.37C593.468 548.172 587.457 547.142 581.424 547.343C575.391 547.544 569.463 548.972 564 551.54L483.46 481C485.537 474.453 486.063 467.513 484.995 460.728C483.927 453.943 481.295 447.499 477.307 441.907C473.319 436.314 468.085 431.727 462.018 428.507C455.951 425.287 449.218 423.522 442.351 423.353C435.485 423.185 428.673 424.616 422.455 427.534C416.238 430.452 410.784 434.777 406.526 440.166C402.268 445.556 399.323 451.862 397.923 458.587C396.523 465.311 396.706 472.269 398.46 478.91L230.64 611.75C222.658 595.463 218.979 577.404 219.952 559.293C220.925 541.181 226.518 523.621 236.199 508.283C245.88 492.945 259.326 480.341 275.257 471.67C291.188 463 309.073 458.552 327.21 458.75C331.269 426.389 346.369 396.418 369.96 373.897C393.551 351.377 424.19 337.684 456.705 335.13C489.22 332.577 521.62 341.319 548.438 359.881C575.255 378.443 594.848 405.689 603.91 437.02C619.915 427.512 638.308 422.784 656.914 423.395C675.521 424.007 693.563 429.932 708.91 440.47L709 440.54Z" fill="white"/>
</g>
<defs>
<clipPath id="clip0_3_698">
<rect width="1024" height="1024" fill="white"/>
</clipPath>
</defs>
</svg>
